public/favicon1.svg

<svg xmlns="http://www.w3.org/2000/svg" fill="none" viewBox="0 0 79 79"><path fill="#000" d="M52.84 4.76C54.81 15.52 63.31 24.03 74.08 26v26.85c-10.76 1.97-19.27 10.47-21.24 21.24H25.99C24.02 63.33 15.52 54.82 4.75 52.85V26c10.76-1.97 19.27-10.47 21.24-21.24zM57.17 0h-35.5c0 11.97-9.7 21.67-21.67 21.67v35.5c11.97 0 21.67 9.7 21.67 21.67h35.5c0-11.97 9.7-21.67 21.67-21.67v-35.5c-11.97 0-21.67-9.7-21.67-21.67" style="fill:#000;fill-opacity:1"/><path fill="#000" d="M51.58 37.17c-1.66-1.13-3.85-1.57-5.79-1.47-1.36.07-2.18-.5-2.13-2.25.13-3.52-.45-7.38-2.07-10.49-.43-.81-.91-1.51-1.43-2.24a.908.908 0 0 0-1.47 0c-.53.73-1 1.43-1.43 2.24-1.62 3.12-2.2 6.97-2.07 10.49.05 1.75-.76 2.32-2.13 2.25-1.95-.1-4.13.35-5.79 1.47-1.54 1.06-3.57 2.83-1.68 4.12 1.42.85 3.35.63 4.87 1.33.27.1.52.22.77.35 1.59.83 2.4 2.6 2.1 4.37-.11.68-.17 1.39-.17 2.12 0 4.99 2.81 9.04 6.28 9.04s6.28-4.05 6.28-9.04c0-.73-.06-1.44-.17-2.12-.3-1.76.51-3.54 2.1-4.37.25-.13.5-.24.77-.35 1.52-.7 3.45-.49 4.87-1.33 1.89-1.29-.14-3.05-1.68-4.12z" style="fill:#000;fill-opacity:1"/></svg>

<svg width="79" height="79" viewBox="0 0 79 79" fill="none" xmlns="http://www.w3.org/2000/svg">
<path d="M52.84 4.76C54.81 15.52 63.31 24.03 74.08 26V52.85C63.32 54.82 54.81 63.32 52.84 74.09H25.99C24.02 63.33 15.52 54.82 4.75 52.85V26C15.51 24.03 24.02 15.53 25.99 4.76H52.84ZM57.17 0H21.67C21.67 11.97 11.97 21.67 0 21.67V57.17C11.97 57.17 21.67 66.87 21.67 78.84H57.17C57.17 66.87 66.87 57.17 78.84 57.17V21.67C66.87 21.67 57.17 11.97 57.17 0Z" fill="black" style="fill:black;fill-opacity:1;"/>
<path d="M51.58 37.17C49.92 36.04 47.73 35.6 45.79 35.7C44.43 35.77 43.61 35.2 43.66 33.45C43.79 29.93 43.21 26.07 41.59 22.96C41.16 22.15 40.68 21.45 40.16 20.72C39.8 20.22 39.05 20.22 38.69 20.72C38.16 21.45 37.69 22.15 37.26 22.96C35.64 26.08 35.06 29.93 35.19 33.45C35.24 35.2 34.43 35.77 33.06 35.7C31.11 35.6 28.93 36.05 27.27 37.17C25.73 38.23 23.7 40 25.59 41.29C27.01 42.14 28.94 41.92 30.46 42.62C30.73 42.72 30.98 42.84 31.23 42.97C32.82 43.8 33.63 45.57 33.33 47.34C33.22 48.02 33.16 48.73 33.16 49.46C33.16 54.45 35.97 58.5 39.44 58.5C42.91 58.5 45.72 54.45 45.72 49.46C45.72 48.73 45.66 48.02 45.55 47.34C45.25 45.58 46.06 43.8 47.65 42.97C47.9 42.84 48.15 42.73 48.42 42.62C49.94 41.92 51.87 42.13 53.29 41.29C55.18 40 53.15 38.24 51.61 37.17H51.58Z" fill="black" style="fill:black;fill-opacity:1;"/>
</svg>
